X:1
T:3 Lieder, Op.7
T:Du bist wie eine Blume
T:1. Du bist wie eine Blume
T:Emilie Mayer 
T:3 Lieder, Op. 7
T:Heinrich Heine
T:Creative Commons copyright waiver (CC0 1.0 Universal)
T:Creative Commons copyright waiver (CC0 1.0 Universal)
C:Emilie Mayer
Z:Heinrich Heine
Z:Creative Commons copyright waiver (CC0 1.0 Universal)
L:1/8
Q:1/4=71
M:4/4
K:Ab
V:1 treble nm="Singstimme\nVoice"
V:1
"^Un poco Adagio" z8 | z8 | z8 | z4 z2 E2 | A3 A A2 =A2 | c2 B2 z2 BA | G2 B2 e2 d2 | c2 z2 z2 A2 | %8
w: |||Du|bist wie ei- ne|Blu- me so *|hold so schön und|rein, ich|
 e3 A A2 B2 |!>(! (c3 B)!>)! A2 A2 | d2 cB A2 GF | =E2 z2 z2 _E2 | c3 e e2 A2 |!>(! a4 g2!>)! f2 | %14
w: schau' dich an und|Weh- * mut schleicht|mir in's * Herz hin- *|ein, ich|schau' dich an und|Weh- mut schleicht|
 f3 e d2 B2 | A2 z2 z2 A2 | A3 A A2 A d | d2 c2 z2 c2 | e3 _G B2 A2 | F2 z2 z4 || %20
w: mir in's Herz hin-|ein. Mir|ist als ob ich die|Hän- de auf's|Haupt dir le- gen|sollt|
[K:A] c2 c B AG/A/ c B | A>G G2 z4 | d2 d c B^A/B/ d c | B>^A A2 z2 =B2 ||[K:Ab] c3 c edB G | %25
w: be- tend das Gott * * dich er-|hal- * te|be- tend dass Gott * * dich er-|hal- * te so|rein so schön * * und|
 A2 z2 z4 | z2 c2 d2 G2 | (A2 a2- (6:4:6a/g/b/a/g/f/ (6:4:6=e/f/_e/d/) c/B/ | %28
w: hold|so rein und|hold _ _ _ _ _ _ _ _ _ _ _ so *|
 (f2 e) c fe!fermata!d !fermata!B | A2 z2 z4 | z8 | z8 |] %32
w: rein * so schön * * und|hold.|||

